output.cube
TITLE "CLIP_DLUT"
LUT_3D_SIZE 5
DOMAIN_MIN 0.0 0.0 0.0
DOMAIN_MAX 1.0 1.0 1.0
0.000000 0.086611 0.189351
0.063351 0.072843 0.177167
0.342128 0.044866 0.153348
0.609047 0.024582 0.146145
0.857960 0.014071 0.150891
0.000000 0.314064 0.181912
0.078587 0.300792 0.169203
0.351809 0.274602 0.154120
0.614545 0.254016 0.150880
0.864044 0.240986 0.157743
0.000000 0.547363 0.178157
0.092161 0.536447 0.168920
0.356727 0.518146 0.160875
0.614640 0.502512 0.161784
0.864986 0.489650 0.169077
0.000000 0.784595 0.183757
0.097676 0.775663 0.177733
0.356040 0.763236 0.173372
0.611140 0.750910 0.176229
0.861054 0.740000 0.184126
0.000000 0.950412 0.193105
0.096631 0.949642 0.189043
0.353458 0.947746 0.186392
0.605701 0.945050 0.190845
0.855399 0.941409 0.198870
0.000000 0.080170 0.438897
0.064155 0.065950 0.423374
0.342226 0.039687 0.399273
0.606106 0.022573 0.390148
0.852909 0.014361 0.392648
0.000000 0.305965 0.428254
0.082263 0.292072 0.413817
0.353821 0.268771 0.397004
0.612787 0.252178 0.394101
0.860150 0.240865 0.398611
0.000000 0.539638 0.423989
0.094292 0.528915 0.411980
0.357764 0.513337 0.403134
0.613676 0.499973 0.403945
0.861763 0.488457 0.408940
0.000000 0.777103 0.429517
0.098211 0.769179 0.421418
0.355764 0.758911 0.415133
0.609274 0.748432 0.417713
0.858145 0.737952 0.423800
0.000000 0.946249 0.439285
0.095605 0.945849 0.433697
0.350897 0.944766 0.429285
0.603189 0.942587 0.431395
0.852133 0.939339 0.437779
0.000000 0.071063 0.686658
0.064231 0.057435 0.670883
0.339016 0.035466 0.651227
0.598082 0.022927 0.646104
0.844029 0.015772 0.649965
0.000000 0.296445 0.678368
0.082136 0.282978 0.664117
0.350604 0.264709 0.651254
0.606864 0.251390 0.650824
0.852159 0.241669 0.656286
0.000000 0.531410 0.676359
0.092657 0.521190 0.665859
0.355183 0.508217 0.658523
0.609133 0.497467 0.661169
0.855394 0.487481 0.666456
0.000000 0.769929 0.683517
0.095559 0.762695 0.676595
0.352817 0.753414 0.671534
0.606019 0.744254 0.674571
0.853149 0.735050 0.681347
0.000000 0.941657 0.694287
0.092630 0.941351 0.689730
0.346797 0.940585 0.686690
0.598873 0.939071 0.688656
0.846524 0.936097 0.695833
0.000000 0.062382 0.938652
0.058568 0.051634 0.925436
0.327447 0.035410 0.911573
0.585615 0.024369 0.908573
0.831616 0.017480 0.911907
0.000000 0.288583 0.934583
0.075183 0.277282 0.923453
0.339953 0.262582 0.913350
0.595886 0.250735 0.913300
0.840280 0.242219 0.918395
0.000000 0.524554 0.935822
0.085647 0.515518 0.927681
0.346946 0.503737 0.921364
0.600270 0.494245 0.923312
0.844457 0.486632 0.929251
0.000000 0.763675 0.943433
0.089487 0.756744 0.937884
0.345719 0.747722 0.934500
0.598449 0.739408 0.937111
0.843207 0.732472 0.943973
0.000000 0.936640 0.954105
0.086739 0.936264 0.950467
0.340279 0.935431 0.948830
0.591248 0.934169 0.951444
0.837424 0.931769 0.958166
0.000000 0.060468 1.000000
0.052085 0.051200 1.000000
0.317957 0.037267 1.000000
0.575850 0.027008 1.000000
0.822199 0.019969 1.000000
0.000000 0.285992 1.000000
0.067567 0.276224 1.000000
0.330099 0.262866 1.000000
0.585842 0.251871 1.000000
0.830954 0.243586 1.000000
0.000000 0.522408 1.000000
0.078813 0.514215 1.000000
0.338155 0.503048 1.000000
0.591064 0.494341 1.000000
0.835288 0.487483 1.000000
0.000000 0.761534 1.000000
0.083605 0.754895 1.000000
0.338557 0.746470 1.000000
0.590853 0.738667 1.000000
0.834904 0.732686 1.000000
0.000000 0.934924 1.000000
0.081407 0.934510 1.000000
0.334744 0.933687 1.000000
0.584926 0.932455 1.000000
0.830070 0.930377 1.000000
