output.cube
TITLE "CLIP_DLUT"
LUT_3D_SIZE 33
DOMAIN_MIN 0.0 0.0 0.0
DOMAIN_MAX 1.0 1.0 1.0
0.000000 0.086611 0.189351
0.000000 0.086429 0.189094
0.000000 0.085908 0.188686
0.000000 0.084942 0.188090
0.000000 0.083532 0.187183
0.000000 0.081621 0.185714
0.000000 0.079066 0.183365
0.028787 0.075952 0.180297
0.063351 0.072843 0.177167
0.098056 0.069535 0.173932
0.132934 0.066047 0.170619
0.167901 0.062464 0.167276
0.202904 0.058844 0.163912
0.237892 0.055236 0.160662
0.272776 0.051697 0.157777
0.307519 0.048233 0.155468
0.342128 0.044866 0.153348
0.376554 0.041632 0.151483
0.410702 0.038577 0.149904
0.444550 0.035753 0.148631
0.478058 0.033165 0.147670
0.511221 0.030768 0.146991
0.544113 0.028534 0.146515
0.576725 0.026463 0.146239
0.609047 0.024582 0.146145
0.641069 0.022899 0.146301
0.672886 0.021350 0.146645
0.704516 0.019925 0.147099
0.735988 0.018605 0.147662
0.767323 0.017369 0.148345
0.798546 0.016212 0.149156
0.829687 0.015090 0.150052
0.857960 0.014071 0.150891
0.000000 0.108579 0.188774
0.000000 0.108413 0.188520
0.000000 0.107907 0.188116
0.000000 0.106958 0.187519
0.000000 0.105555 0.186610
0.000000 0.103640 0.185117
0.000000 0.101078 0.182751
0.029903 0.097916 0.179662
0.064482 0.094496 0.176502
0.099158 0.090860 0.173294
0.133992 0.087027 0.170016
0.168961 0.083041 0.166696
0.203940 0.079028 0.163366
0.238901 0.075013 0.160144
0.273768 0.071036 0.157543
0.308469 0.067146 0.155267
0.343043 0.063346 0.153187
0.377435 0.059662 0.151360
0.411530 0.056195 0.149814
0.445302 0.052961 0.148584
0.478733 0.049969 0.147661
0.511825 0.047145 0.147022
0.544667 0.044479 0.146575
0.577249 0.041976 0.146326
0.609543 0.039662 0.146281
0.641516 0.037570 0.146477
0.673294 0.035610 0.146842
0.704900 0.033763 0.147309
0.736346 0.032029 0.147871
0.767650 0.030393 0.148565
0.798864 0.028826 0.149388
0.829992 0.027292 0.150296
0.858400 0.025877 0.151143
0.000000 0.138167 0.188020
0.000000 0.138004 0.187761
0.000000 0.137519 0.187352
0.000000 0.136606 0.186757
0.000000 0.135209 0.185814
0.000000 0.133300 0.184265
0.000000 0.130742 0.181828
0.031615 0.127641 0.178787
0.066166 0.124262 0.175625
0.100861 0.120637 0.172430
0.135672 0.116838 0.169211
0.170666 0.112853 0.165904
0.205664 0.108834 0.162667
0.240568 0.104858 0.159700
0.275379 0.100914 0.157279
0.310080 0.097037 0.155036
0.344627 0.093263 0.153027
0.378924 0.089680 0.151274
0.412948 0.086292 0.149794
0.446586 0.083166 0.148655
0.479912 0.080236 0.147806
0.512957 0.077466 0.147185
0.545764 0.074827 0.146781
0.578323 0.072336 0.146598
0.610591 0.070047 0.146627
0.642559 0.067948 0.146888
0.674303 0.066004 0.147301
0.705887 0.064184 0.147814
0.737301 0.062490 0.148437
0.768590 0.060897 0.149181
0.799788 0.059358 0.150045
0.830906 0.057846 0.150986
0.859468 0.056460 0.151878
0.000000 0.167712 0.187167
0.000000 0.167550 0.186893
0.000000 0.167070 0.186459
0.000000 0.166155 0.185822
0.000000 0.164768 0.184868
0.000000 0.162860 0.183285
0.000000 0.160296 0.180803
0.033485 0.157225 0.177772
0.067958 0.153912 0.174702
0.102633 0.150328 0.171545
0.137463 0.146557 0.168388
0.172401 0.142633 0.165195
0.207405 0.138618 0.161992
0.242311 0.134645 0.159442
0.277023 0.130786 0.157085
0.311631 0.126980 0.154917
0.346041 0.123332 0.152975
0.380251 0.119827 0.151300
0.414165 0.116534 0.149897
0.447715 0.113474 0.148848
0.480962 0.110590 0.148065
0.513975 0.107847 0.147481
0.546784 0.105236 0.147077
0.579284 0.102803 0.146954
0.611513 0.100524 0.147055
0.643489 0.098417 0.147350
0.675253 0.096462 0.147807
0.706797 0.094662 0.148407
0.738189 0.092993 0.149121
0.769463 0.091432 0.149914
0.800651 0.089929 0.150797
0.831720 0.088469 0.151768
0.860436 0.087105 0.152692
0.000000 0.197182 0.186250
0.000000 0.197027 0.185945
0.000000 0.196541 0.185453
0.000000 0.195613 0.184759
0.000000 0.194215 0.183765
0.000000 0.192304 0.182192
0.001128 0.189731 0.179658
0.035515 0.186674 0.176613
0.069976 0.183399 0.173599
0.104514 0.179928 0.170640
0.139285 0.176229 0.167572
0.174204 0.172351 0.164477
0.209172 0.168378 0.161609
0.243983 0.164487 0.159227
0.278630 0.160694 0.156984
0.313117 0.157023 0.154869
0.347406 0.153466 0.153015
0.381442 0.150091 0.151420
0.415248 0.146881 0.150102
0.448713 0.143874 0.149146
0.481920 0.141015 0.148411
0.514922 0.138275 0.147874
0.547680 0.135710 0.147533
0.580141 0.133323 0.147420
0.612328 0.131075 0.147566
0.644283 0.128983 0.147927
0.676054 0.127028 0.148452
0.707609 0.125239 0.149107
0.738990 0.123575 0.149882
0.770254 0.122022 0.150736
0.801399 0.120563 0.151650
0.832452 0.119144 0.152626
0.861319 0.117797 0.153563
0.000000 0.226564 0.185253
0.000000 0.226409 0.184914
0.000000 0.225926 0.184368
0.000000 0.224992 0.183625
0.000000 0.223572 0.182590
0.000000 0.221639 0.180979
0.003208 0.219054 0.178434
0.037629 0.216037 0.175411
0.072106 0.212800 0.172457
0.106579 0.209404 0.169612
0.141161 0.205848 0.166747
0.176013 0.202051 0.163745
0.210863 0.198185 0.161353
0.245558 0.194414 0.159063
0.280106 0.190723 0.156914
0.314495 0.187126 0.154925
0.348651 0.183672 0.153155
0.382579 0.180386 0.151650
0.416288 0.177252 0.150408
0.449679 0.174302 0.149491
0.482828 0.171478 0.148812
0.515756 0.168801 0.148352
0.548437 0.166283 0.148080
0.580854 0.163917 0.148030
0.613022 0.161706 0.148221
0.644955 0.159628 0.148655
0.676693 0.157712 0.149223
0.708280 0.155912 0.149914
0.739677 0.154254 0.150706
0.770912 0.152719 0.151607
0.802053 0.151264 0.152572
0.833115 0.149856 0.153556
0.862137 0.148522 0.154517
0.000000 0.255865 0.184164
0.000000 0.255710 0.183800
0.000000 0.255228 0.183216
0.000000 0.254295 0.182426
0.000000 0.252865 0.181360
0.000000 0.250925 0.179721
0.005340 0.248322 0.177135
0.039815 0.245328 0.174192
0.074282 0.242161 0.171317
0.108716 0.238825 0.168539
0.143190 0.235356 0.165822
0.177773 0.231748 0.163412
0.212458 0.228069 0.161135
0.247043 0.224412 0.158966
0.281477 0.220815 0.156913
0.315723 0.217311 0.155068
0.349769 0.213952 0.153418
0.383627 0.210725 0.151974
0.417248 0.207659 0.150790
0.450607 0.204744 0.149899
0.483715 0.201970 0.149263
0.516542 0.199366 0.148879
0.549136 0.196903 0.148717
0.581481 0.194580 0.148762
0.613601 0.192409 0.149013
0.645484 0.190394 0.149476
0.677212 0.188488 0.150080
0.708786 0.186703 0.150804
0.740209 0.185030 0.151634
0.771478 0.183484 0.152544
0.802640 0.182013 0.153526
0.833714 0.180598 0.154557
0.862896 0.179273 0.155527
0.000000 0.285022 0.183003
0.000000 0.284871 0.182616
0.000000 0.284394 0.182008
0.000000 0.283464 0.181195
0.000000 0.282048 0.180102
0.000000 0.280108 0.178447
0.007573 0.277515 0.175870
0.042014 0.274588 0.172994
0.076479 0.271464 0.170215
0.110863 0.268210 0.167541
0.145211 0.264854 0.165109
0.179586 0.261431 0.163027
0.213978 0.257960 0.160989
0.248451 0.254420 0.158924
0.282727 0.250944 0.157008
0.316857 0.247546 0.155272
0.350812 0.244267 0.153761
0.384610 0.241101 0.152388
0.418160 0.238085 0.151262
0.451463 0.235221 0.150421
0.484522 0.232499 0.149843
0.517288 0.229946 0.149526
0.549801 0.227545 0.149450
0.582052 0.225304 0.149589
0.614088 0.223193 0.149901
0.645940 0.221208 0.150381
0.677663 0.219315 0.151007
0.709207 0.217553 0.151771
0.740637 0.215875 0.152628
0.771956 0.214296 0.153564
0.803135 0.212822 0.154548
0.834216 0.211411 0.155589
0.863540 0.210089 0.156592
0.000000 0.314064 0.181912
0.000000 0.313916 0.181499
0.000000 0.313439 0.180873
0.000000 0.312514 0.180044
0.000000 0.311104 0.178940
0.000000 0.309176 0.177271
0.009877 0.306649 0.174691
0.044232 0.303809 0.171885
0.078587 0.300792 0.169203
0.112872 0.297662 0.166711
0.147090 0.294456 0.164681
0.181333 0.291133 0.162704
0.215527 0.287806 0.160829
0.249725 0.284453 0.158966
0.283915 0.281074 0.157158
0.317949 0.277786 0.155535
0.351809 0.274602 0.154120
0.385515 0.271502 0.152893
0.419027 0.268533 0.151847
0.452248 0.265739 0.151086
0.485185 0.263119 0.150593
0.517858 0.260649 0.150346
0.550322 0.258301 0.150329
0.582541 0.256091 0.150521
0.614545 0.254016 0.150880
0.646368 0.252052 0.151386
0.678039 0.250198 0.152032
0.709575 0.248450 0.152814
0.741003 0.246769 0.153689
0.772333 0.245170 0.154647
0.803533 0.243684 0.155663
0.834601 0.242288 0.156713
0.864044 0.240986 0.157743
0.000000 0.343028 0.180941
0.000000 0.342875 0.180524
0.000000 0.342406 0.179878
0.000000 0.341484 0.179023
0.000000 0.340080 0.177920
0.000000 0.338193 0.176263
0.012178 0.335743 0.173708
0.046379 0.333052 0.170976
0.080587 0.330201 0.168365
0.114712 0.327208 0.166297
0.148832 0.324094 0.164377
0.182944 0.320891 0.162503
0.216995 0.317668 0.160727
0.250998 0.314455 0.159038
0.285017 0.311232 0.157394
0.318973 0.308047 0.155891
0.352734 0.304951 0.154587
0.386316 0.301945 0.153491
0.419731 0.299069 0.152609
0.452822 0.296399 0.151956
0.485647 0.293874 0.151538
0.518271 0.291460 0.151356
0.550707 0.289153 0.151382
0.582907 0.286967 0.151606
0.614904 0.284908 0.151984
0.646697 0.282968 0.152521
0.678355 0.281131 0.153186
0.709903 0.279366 0.153972
0.741315 0.277694 0.154852
0.772606 0.276121 0.155821
0.803788 0.274634 0.156855
0.834850 0.273235 0.157933
0.864444 0.271931 0.158984
0.000000 0.372021 0.180118
0.000000 0.371862 0.179692
0.000000 0.371386 0.179030
0.000000 0.370471 0.178181
0.000000 0.369091 0.177097
0.000000 0.367240 0.175459
0.014394 0.364914 0.172950
0.048390 0.362373 0.170288
0.082428 0.359656 0.168030
0.116468 0.356753 0.166046
0.150446 0.353766 0.164197
0.184423 0.350677 0.162417
0.218371 0.347553 0.160729
0.252256 0.344445 0.159163
0.286110 0.341366 0.157685
0.319912 0.338325 0.156341
0.353563 0.335332 0.155187
0.387024 0.332440 0.154228
0.420227 0.329741 0.153512
0.453231 0.327151 0.152980
0.485993 0.324693 0.152635
0.518568 0.322337 0.152504
0.550978 0.320064 0.152561
0.583201 0.317888 0.152792
0.615189 0.315844 0.153184
0.646966 0.313919 0.153751
0.678616 0.312089 0.154442
0.710144 0.310340 0.155251
0.741564 0.308676 0.156126
0.772839 0.307103 0.157089
0.803974 0.305632 0.158131
0.835036 0.304217 0.159220
0.864776 0.302906 0.160288
0.000000 0.401046 0.179426
0.000000 0.400876 0.178989
0.000000 0.400395 0.178327
0.000000 0.399487 0.177493
0.000000 0.398139 0.176443
0.000000 0.396344 0.174835
0.016512 0.394132 0.172373
0.050322 0.391705 0.170006
0.084200 0.389107 0.167885
0.118094 0.386321 0.165931
0.151976 0.383421 0.164120
0.185857 0.380437 0.162431
0.219662 0.377448 0.160841
0.253450 0.374448 0.159374
0.287200 0.371476 0.158021
0.320848 0.368562 0.156838
0.354300 0.365753 0.155885
0.387561 0.363051 0.155127
0.420611 0.360467 0.154526
0.453508 0.357966 0.154096
0.486240 0.355552 0.153824
0.518780 0.353248 0.153727
0.551172 0.351008 0.153811
0.583385 0.348855 0.154063
0.615388 0.346826 0.154471
0.647162 0.344919 0.155059
0.678798 0.343098 0.155773
0.710320 0.341356 0.156596
0.741698 0.339719 0.157491
0.772935 0.338171 0.158439
0.804087 0.336676 0.159463
0.835166 0.335241 0.160540
0.865041 0.333909 0.161634
0.000000 0.430143 0.178810
0.000000 0.429961 0.178383
0.000000 0.429480 0.177743
0.000000 0.428600 0.176941
0.000000 0.427301 0.175913
0.000000 0.425546 0.174330
0.018524 0.423379 0.172090
0.052189 0.421033 0.169926
0.085913 0.418539 0.167856
0.119666 0.415880 0.165948
0.153447 0.413085 0.164176
0.187193 0.410220 0.162561
0.220941 0.407311 0.161074
0.254635 0.404425 0.159693
0.288272 0.401563 0.158452
0.321731 0.398820 0.157449
0.354965 0.396208 0.156663
0.387994 0.393700 0.156098
0.420917 0.391230 0.155639
0.453715 0.388810 0.155266
0.486384 0.386455 0.155072
0.518937 0.384168 0.155015
0.551291 0.381975 0.155120
0.583454 0.379881 0.155385
0.615439 0.377885 0.155805
0.647215 0.375991 0.156411
0.678861 0.374181 0.157134
0.710360 0.372459 0.157961
0.741699 0.370835 0.158878
0.772928 0.369290 0.159840
0.804083 0.367793 0.160843
0.835173 0.366340 0.161906
0.865170 0.364984 0.163013
0.000000 0.459308 0.178398
0.000000 0.459122 0.177978
0.000000 0.458652 0.177356
0.000000 0.457794 0.176562
0.000000 0.456516 0.175535
0.000000 0.454781 0.174098
0.020414 0.452654 0.172052
0.053975 0.450382 0.169947
0.087560 0.447998 0.167941
0.121205 0.445435 0.166083
0.154872 0.442747 0.164367
0.188532 0.439984 0.162821
0.222194 0.437166 0.161395
0.255803 0.434376 0.160149
0.289223 0.431700 0.159099
0.322485 0.429135 0.158225
0.355555 0.426676 0.157545
0.388423 0.424319 0.157080
0.421178 0.421984 0.156758
0.453878 0.419659 0.156504
0.486465 0.417383 0.156342
0.518931 0.415166 0.156341
0.551252 0.413021 0.156490
0.583413 0.410954 0.156755
0.615393 0.408983 0.157192
0.647189 0.407098 0.157797
0.678805 0.405321 0.158532
0.710255 0.403632 0.159381
0.741606 0.402000 0.160308
0.772869 0.400430 0.161284
0.804026 0.398935 0.162294
0.835108 0.397482 0.163353
0.865236 0.396102 0.164435
0.000000 0.488600 0.178199
0.000000 0.488409 0.177771
0.000000 0.487940 0.177135
0.000000 0.487084 0.176330
0.000000 0.485804 0.175427
0.000000 0.484074 0.174181
0.022152 0.481993 0.172157
0.055665 0.479762 0.170111
0.089180 0.477457 0.168136
0.122721 0.475003 0.166312
0.156275 0.472418 0.164666
0.189844 0.469737 0.163197
0.223388 0.467046 0.161890
0.256790 0.464427 0.160801
0.290067 0.461884 0.159908
0.323144 0.459475 0.159151
0.356063 0.457137 0.158555
0.388829 0.454881 0.158127
0.421439 0.452703 0.157846
0.453965 0.450524 0.157709
0.486437 0.448350 0.157660
0.518819 0.446215 0.157706
0.551117 0.444106 0.157886
0.583299 0.442048 0.158182
0.615278 0.440094 0.158641
0.647048 0.438252 0.159259
0.678614 0.436525 0.160009
0.710067 0.434848 0.160851
0.741437 0.433209 0.161779
0.772718 0.431621 0.162768
0.803892 0.430103 0.163799
0.834975 0.428653 0.164865
0.865218 0.427271 0.165945
0.000000 0.517971 0.178130
0.000000 0.517775 0.177689
0.000000 0.517305 0.177041
0.000000 0.516451 0.176333
0.000000 0.515161 0.175661
0.000000 0.513437 0.174424
0.023736 0.511380 0.172428
0.057229 0.509191 0.170403
0.090731 0.506929 0.168457
0.124200 0.504569 0.166660
0.157664 0.502085 0.165081
0.191058 0.499559 0.163740
0.224432 0.497011 0.162572
0.257674 0.494534 0.161614
0.290744 0.492157 0.160843
0.323696 0.489836 0.160204
0.356482 0.487602 0.159657
0.389128 0.485456 0.159252
0.421634 0.483385 0.159008
0.454015 0.481363 0.158931
0.486335 0.479328 0.158991
0.518651 0.477274 0.159114
0.550911 0.475217 0.159313
0.583071 0.473191 0.159664
0.615021 0.471274 0.160186
0.646734 0.469487 0.160827
0.678296 0.467780 0.161563
0.709780 0.466105 0.162387
0.741171 0.464460 0.163307
0.772456 0.462864 0.164301
0.803666 0.461314 0.165340
0.834797 0.459835 0.166402
0.865148 0.458446 0.167485
0.000000 0.547363 0.178157
0.000000 0.547167 0.177711
0.000000 0.546697 0.177109
0.000000 0.545834 0.176668
0.000000 0.544549 0.176014
0.000000 0.542836 0.174788
0.025212 0.540818 0.172821
0.058678 0.538666 0.170823
0.092161 0.536447 0.168920
0.125585 0.534161 0.167188
0.158869 0.531845 0.165720
0.192135 0.529435 0.164469
0.225320 0.527049 0.163416
0.258345 0.524747 0.162555
0.291243 0.522490 0.161869
0.324030 0.520292 0.161320
0.356727 0.518146 0.160875
0.389300 0.516072 0.160522
0.421739 0.514076 0.160305
0.454026 0.512153 0.160260
0.486249 0.510255 0.160345
0.518452 0.508307 0.160551
0.550646 0.506326 0.160830
0.582737 0.504376 0.161222
0.614640 0.502512 0.161784
0.646363 0.500734 0.162466
0.677947 0.499031 0.163193
0.709437 0.497368 0.163997
0.740825 0.495730 0.164903
0.772118 0.494127 0.165886
0.803341 0.492567 0.166927
0.834502 0.491061 0.167995
0.864986 0.489650 0.169077
0.000000 0.576790 0.178256
0.000000 0.576592 0.177806
0.000000 0.576116 0.177511
0.000000 0.575252 0.177085
0.000000 0.573969 0.176456
0.000000 0.572267 0.175248
0.026656 0.570266 0.173305
0.060059 0.568174 0.171366
0.093462 0.566046 0.169533
0.126758 0.563886 0.167907
0.159890 0.561680 0.166536
0.192921 0.559463 0.165396
0.225888 0.557245 0.164441
0.258729 0.555080 0.163655
0.291492 0.552938 0.163036
0.324192 0.550821 0.162573
0.356811 0.548753 0.162210
0.389359 0.546726 0.161901
0.421765 0.544782 0.161720
0.454032 0.542909 0.161679
0.486201 0.541073 0.161774
0.518300 0.539259 0.162000
0.550343 0.537414 0.162389
0.582327 0.535567 0.162870
0.614194 0.533753 0.163460
0.645937 0.531992 0.164142
0.677535 0.530297 0.164897
0.709014 0.528647 0.165700
0.740407 0.527016 0.166586
0.771722 0.525403 0.167545
0.802958 0.523833 0.168573
0.834143 0.522306 0.169656
0.864739 0.520877 0.170741
0.000000 0.606276 0.178392
0.000000 0.606067 0.178248
0.000000 0.605592 0.177971
0.000000 0.604729 0.177565
0.000000 0.603448 0.176968
0.000000 0.601763 0.175789
0.027937 0.599819 0.173903
0.061214 0.597827 0.172059
0.094469 0.595797 0.170327
0.127647 0.593741 0.168779
0.160658 0.591649 0.167500
0.193503 0.589591 0.166467
0.226265 0.587547 0.165612
0.258983 0.585473 0.164905
0.291626 0.583427 0.164355
0.324227 0.581402 0.163928
0.356775 0.579404 0.163625
0.389264 0.577445 0.163387
0.421647 0.575541 0.163246
0.453923 0.573685 0.163206
0.486093 0.571876 0.163310
0.518141 0.570127 0.163563
0.550069 0.568438 0.163966
0.581933 0.566700 0.164529
0.613735 0.564958 0.165194
0.645472 0.563233 0.165880
0.677056 0.561560 0.166656
0.708552 0.559909 0.167477
0.739961 0.558286 0.168338
0.771286 0.556679 0.169276
0.802537 0.555106 0.170292
0.833748 0.553571 0.171366
0.864452 0.552118 0.172463
0.000000 0.635846 0.178931
0.000000 0.635632 0.178811
0.000000 0.635159 0.178549
0.000000 0.634305 0.178160
0.000000 0.633046 0.177589
0.000000 0.631399 0.176453
0.028985 0.629513 0.174652
0.062165 0.627583 0.172912
0.095280 0.625638 0.171293
0.128333 0.623683 0.169826
0.161251 0.621721 0.168618
0.193957 0.619789 0.167671
0.226567 0.617872 0.166901
0.259153 0.615916 0.166265
0.291706 0.613945 0.165764
0.324205 0.611998 0.165389
0.356653 0.610090 0.165128
0.389083 0.608193 0.164947
0.421460 0.606315 0.164844
0.453734 0.604478 0.164814
0.485884 0.602704 0.164937
0.517900 0.601012 0.165214
0.549818 0.599350 0.165623
0.581629 0.597717 0.166190
0.613326 0.596079 0.166914
0.644936 0.594453 0.167698
0.676517 0.592801 0.168475
0.708030 0.591157 0.169302
0.739471 0.589530 0.170171
0.770832 0.587927 0.171089
0.802104 0.586365 0.172076
0.833296 0.584864 0.173140
0.864082 0.583419 0.174244
0.000000 0.665476 0.179638
0.000000 0.665267 0.179516
0.000000 0.664803 0.179277
0.000000 0.663972 0.178907
0.000000 0.662726 0.178349
0.000000 0.661122 0.177259
0.029851 0.659280 0.175551
0.062932 0.657423 0.173922
0.095962 0.655551 0.172392
0.128916 0.653681 0.171004
0.161712 0.651857 0.169851
0.194330 0.650024 0.168965
0.226828 0.648206 0.168275
0.259301 0.646350 0.167694
0.291739 0.644478 0.167250
0.324136 0.642618 0.166928
0.356503 0.640769 0.166705
0.388871 0.638928 0.166560
0.421209 0.637100 0.166493
0.453472 0.635295 0.166516
0.485593 0.633573 0.166644
0.517596 0.631900 0.166936
0.549525 0.630250 0.167350
0.581329 0.628649 0.167916
0.612960 0.627101 0.168652
0.644486 0.625557 0.169480
0.675984 0.623994 0.170336
0.707465 0.622392 0.171175
0.738925 0.620771 0.172046
0.770302 0.619183 0.172977
0.801572 0.617655 0.173956
0.832753 0.616175 0.175003
0.863619 0.614731 0.176098
0.000000 0.695173 0.180478
0.000000 0.694968 0.180360
0.000000 0.694516 0.180130
0.000000 0.693689 0.179772
0.000000 0.692475 0.179244
0.000000 0.690909 0.178190
0.030567 0.689117 0.176581
0.063575 0.687311 0.175053
0.096556 0.685483 0.173589
0.129408 0.683729 0.172278
0.162090 0.682018 0.171189
0.194622 0.680285 0.170355
0.227036 0.678544 0.169732
0.259385 0.676788 0.169213
0.291734 0.675007 0.168805
0.324043 0.673233 0.168523
0.356361 0.671429 0.168320
0.388677 0.669636 0.168201
0.420942 0.667876 0.168183
0.453132 0.666144 0.168260
0.485249 0.664441 0.168448
0.517255 0.662788 0.168733
0.549176 0.661160 0.169134
0.580956 0.659582 0.169713
0.612601 0.658045 0.170433
0.644103 0.656562 0.171260
0.675541 0.655072 0.172156
0.706944 0.653564 0.173068
0.738322 0.652029 0.173970
0.769674 0.650485 0.174924
0.800946 0.648972 0.175918
0.832136 0.647501 0.176941
0.863084 0.646057 0.178007
0.000000 0.724931 0.181454
0.000000 0.724728 0.181346
0.000000 0.724282 0.181122
0.000000 0.723486 0.180795
0.000000 0.722300 0.180292
0.000000 0.720761 0.179267
0.031184 0.719001 0.177713
0.064157 0.717225 0.176242
0.097057 0.715474 0.174868
0.129778 0.713828 0.173659
0.162360 0.712208 0.172631
0.194804 0.710570 0.171848
0.227157 0.708896 0.171267
0.259448 0.707221 0.170788
0.291711 0.705525 0.170413
0.323985 0.703802 0.170150
0.356242 0.702059 0.169962
0.388491 0.700322 0.169891
0.420673 0.698640 0.169920
0.452793 0.696971 0.170050
0.484865 0.695307 0.170273
0.516880 0.693659 0.170603
0.548772 0.692062 0.171016
0.580530 0.690507 0.171569
0.612180 0.688992 0.172279
0.643700 0.687528 0.173094
0.675118 0.686099 0.173991
0.706449 0.684675 0.174945
0.737745 0.683234 0.175931
0.769003 0.681779 0.176920
0.800242 0.680304 0.177922
0.831446 0.678831 0.178952
0.862454 0.677385 0.180002
0.000000 0.754735 0.182544
0.000000 0.754537 0.182442
0.000000 0.754109 0.182238
0.000000 0.753329 0.181924
0.000000 0.752153 0.181439
0.000000 0.750634 0.180448
0.031693 0.748909 0.178958
0.064639 0.747190 0.177530
0.097410 0.745556 0.176253
0.130044 0.743970 0.175125
0.162553 0.742422 0.174151
0.194943 0.740858 0.173401
0.227215 0.739264 0.172847
0.259459 0.737652 0.172411
0.291698 0.736010 0.172051
0.323947 0.734333 0.171796
0.356153 0.732651 0.171648
0.388295 0.731002 0.171613
0.420413 0.729373 0.171693
0.452482 0.727744 0.171861
0.484504 0.726121 0.172129
0.516448 0.724531 0.172485
0.548320 0.722958 0.172963
0.580057 0.721427 0.173537
0.611692 0.719946 0.174203
0.643217 0.718508 0.174999
0.674640 0.717114 0.175884
0.705947 0.715750 0.176853
0.737170 0.714388 0.177881
0.768376 0.712996 0.178937
0.799546 0.711585 0.179980
0.830730 0.710145 0.181007
0.861751 0.708712 0.182052
0.000000 0.784595 0.183757
0.000000 0.784398 0.183657
0.000000 0.783975 0.183448
0.000000 0.783202 0.183138
0.000000 0.782045 0.182671
0.000000 0.780547 0.181708
0.032104 0.778876 0.180293
0.064959 0.777250 0.178959
0.097676 0.775663 0.177733
0.130252 0.774130 0.176653
0.162691 0.772643 0.175732
0.195015 0.771168 0.175006
0.227274 0.769629 0.174461
0.259488 0.768052 0.174048
0.291708 0.766452 0.173707
0.323885 0.764848 0.173483
0.356040 0.763236 0.173372
0.388118 0.761644 0.173381
0.420167 0.760059 0.173478
0.452179 0.758483 0.173697
0.484113 0.756933 0.174022
0.516000 0.755392 0.174427
0.547802 0.753870 0.174928
0.579525 0.752367 0.175545
0.611140 0.750910 0.176229
0.642642 0.749504 0.176998
0.674071 0.748131 0.177859
0.705400 0.746792 0.178813
0.736619 0.745473 0.179842
0.767777 0.744145 0.180917
0.798909 0.742788 0.182016
0.830030 0.741406 0.183090
0.861054 0.740000 0.184126
0.000000 0.814467 0.185014
0.000000 0.814270 0.184917
0.000000 0.813853 0.184712
0.000000 0.813097 0.184410
0.000000 0.811961 0.183965
0.000000 0.810496 0.183037
0.032427 0.808909 0.181700
0.065188 0.807358 0.180452
0.097859 0.805813 0.179291
0.130394 0.804315 0.178249
0.162799 0.802870 0.177349
0.195096 0.801438 0.176643
0.227367 0.799946 0.176095
0.259563 0.798410 0.175694
0.291705 0.796872 0.175399
0.323822 0.795337 0.175214
0.355892 0.793803 0.175139
0.387934 0.792255 0.175173
0.419924 0.790725 0.175301
0.451826 0.789231 0.175580
0.483692 0.787735 0.175960
0.515517 0.786248 0.176395
0.547271 0.784771 0.176930
0.578937 0.783316 0.177572
0.610536 0.781885 0.178288
0.642042 0.780492 0.179062
0.673448 0.779152 0.179910
0.704780 0.777836 0.180829
0.736039 0.776529 0.181820
0.767191 0.775243 0.182888
0.798290 0.773944 0.183998
0.829380 0.772614 0.185127
0.860367 0.771253 0.186217
0.000000 0.844363 0.186317
0.000000 0.844166 0.186223
0.000000 0.843756 0.186031
0.000000 0.843013 0.185742
0.000000 0.841903 0.185318
0.000000 0.840489 0.184435
0.032680 0.838993 0.183166
0.065376 0.837490 0.181978
0.098001 0.835976 0.180884
0.130502 0.834515 0.179881
0.162901 0.833088 0.179006
0.195209 0.831670 0.178296
0.227461 0.830215 0.177754
0.259630 0.828734 0.177378
0.291713 0.827257 0.177128
0.323748 0.825803 0.176973
0.355738 0.824341 0.176927
0.387710 0.822867 0.177002
0.419613 0.821405 0.177190
0.451436 0.819966 0.177511
0.483225 0.818529 0.177923
0.515015 0.817088 0.178380
0.546721 0.815663 0.178944
0.578351 0.814248 0.179599
0.609910 0.812850 0.180333
0.641389 0.811494 0.181139
0.672798 0.810163 0.181993
