output.cube
TITLE "CLIP_DLUT"
LUT_3D_SIZE 9
DOMAIN_MIN 0.0 0.0 0.0
DOMAIN_MAX 1.0 1.0 1.0
0.000000 0.086611 0.189351
0.000000 0.083532 0.187183
0.063351 0.072843 0.177167
0.202904 0.058844 0.163912
0.342128 0.044866 0.153348
0.478058 0.033165 0.147670
0.609047 0.024582 0.146145
0.735988 0.018605 0.147662
0.857960 0.014071 0.150891
0.000000 0.197182 0.186250
0.000000 0.194215 0.183765
0.069976 0.183399 0.173599
0.209172 0.168378 0.161609
0.347406 0.153466 0.153015
0.481920 0.141015 0.148411
0.612328 0.131075 0.147566
0.738990 0.123575 0.149882
0.861319 0.117797 0.153563
0.000000 0.314064 0.181912
0.000000 0.311104 0.178940
0.078587 0.300792 0.169203
0.215527 0.287806 0.160829
0.351809 0.274602 0.154120
0.485185 0.263119 0.150593
0.614545 0.254016 0.150880
0.741003 0.246769 0.153689
0.864044 0.240986 0.157743
0.000000 0.430143 0.178810
0.000000 0.427301 0.175913
0.085913 0.418539 0.167856
0.220941 0.407311 0.161074
0.354965 0.396208 0.156663
0.486384 0.386455 0.155072
0.615439 0.377885 0.155805
0.741699 0.370835 0.158878
0.865170 0.364984 0.163013
0.000000 0.547363 0.178157
0.000000 0.544549 0.176014
0.092161 0.536447 0.168920
0.225320 0.527049 0.163416
0.356727 0.518146 0.160875
0.486249 0.510255 0.160345
0.614640 0.502512 0.161784
0.740825 0.495730 0.164903
0.864986 0.489650 0.169077
0.000000 0.665476 0.179638
0.000000 0.662726 0.178349
0.095962 0.655551 0.172392
0.226828 0.648206 0.168275
0.356503 0.640769 0.166705
0.485593 0.633573 0.166644
0.612960 0.627101 0.168652
0.738925 0.620771 0.172046
0.863619 0.614731 0.176098
0.000000 0.784595 0.183757
0.000000 0.782045 0.182671
0.097676 0.775663 0.177733
0.227274 0.769629 0.174461
0.356040 0.763236 0.173372
0.484113 0.756933 0.174022
0.611140 0.750910 0.176229
0.736619 0.745473 0.179842
0.861054 0.740000 0.184126
0.000000 0.904261 0.189164
0.000000 0.901952 0.188297
0.098092 0.896380 0.184212
0.227369 0.890808 0.181353
0.355280 0.885400 0.180752
0.482249 0.880096 0.181952
0.608525 0.874790 0.184524
0.733952 0.869686 0.188091
0.858426 0.864726 0.192284
0.000000 0.950412 0.193105
0.000000 0.950423 0.192502
0.096631 0.949642 0.189043
0.225742 0.948705 0.186696
0.353458 0.947746 0.186392
0.479991 0.946545 0.187933
0.605701 0.945050 0.190845
0.730905 0.943315 0.194600
0.855399 0.941409 0.198870
0.000000 0.083814 0.314606
0.000000 0.080708 0.311981
0.063467 0.069779 0.300519
0.203250 0.056062 0.286831
0.342534 0.042212 0.275033
0.477749 0.031237 0.267776
0.608131 0.023391 0.264494
0.734637 0.017863 0.264464
0.855925 0.014060 0.266113
0.000000 0.194377 0.310291
0.000000 0.191243 0.307115
0.071057 0.180111 0.296055
0.210403 0.165274 0.283686
0.348594 0.150607 0.273063
0.482395 0.139015 0.266999
0.611805 0.129959 0.265148
0.737706 0.123291 0.266016
0.859814 0.117733 0.267939
0.000000 0.310498 0.304934
0.000000 0.307337 0.301512
0.080335 0.296987 0.291149
0.217269 0.284401 0.281334
0.353364 0.271625 0.272933
0.485616 0.261124 0.268444
0.614266 0.252830 0.267694
0.740284 0.246125 0.269125
0.862726 0.240740 0.271545
0.000000 0.426514 0.301167
0.000000 0.423419 0.297857
0.087937 0.414501 0.288434
0.222992 0.403890 0.280338
0.356388 0.393457 0.274769
0.487076 0.384399 0.272265
0.615323 0.376629 0.271924
0.741114 0.370088 0.273590
0.863857 0.364673 0.276257
0.000000 0.543659 0.300495
0.000000 0.540736 0.297478
0.093333 0.532983 0.288777
0.226454 0.524137 0.281652
0.357734 0.515715 0.278394
0.486825 0.508363 0.277213
0.614566 0.501223 0.277597
0.740328 0.494816 0.279246
0.863914 0.488949 0.281779
0.000000 0.661805 0.301835
0.000000 0.658988 0.298846
0.096762 0.652342 0.291431
0.227633 0.645439 0.285887
0.357083 0.638659 0.283399
0.485492 0.632122 0.282977
0.612509 0.625886 0.284033
0.738493 0.619702 0.286000
0.862515 0.613900 0.288542
0.000000 0.780930 0.305164
0.000000 0.778352 0.302577
0.098207 0.772604 0.296498
0.227695 0.766964 0.291877
0.356067 0.761239 0.289703
0.483571 0.755597 0.289667
0.610312 0.749874 0.291008
0.735873 0.744473 0.293327
0.859986 0.739123 0.296272
0.000000 0.900755 0.310213
0.000000 0.898460 0.307964
0.098023 0.893480 0.303121
0.226841 0.888501 0.299093
0.354548 0.883591 0.297119
0.481441 0.878603 0.297214
0.607578 0.873657 0.298639
0.733021 0.868694 0.301023
0.857174 0.863962 0.304076
0.000000 0.948372 0.313704
0.000000 0.948403 0.311785
0.096151 0.947910 0.307593
0.224789 0.947246 0.304111
0.352369 0.946433 0.302414
0.478949 0.945345 0.302732
0.604663 0.944005 0.304321
0.729900 0.942353 0.306866
0.854247 0.940552 0.309986
0.000000 0.080170 0.438897
0.000000 0.076851 0.435511
0.064155 0.065950 0.423374
0.204326 0.052381 0.409758
0.342226 0.039687 0.399273
0.476397 0.029739 0.392733
0.606106 0.022573 0.390148
0.731980 0.017869 0.390640
0.852909 0.014361 0.392648
0.000000 0.190207 0.433415
0.000000 0.186939 0.429911
0.072760 0.175558 0.418597
0.212090 0.161256 0.406340
0.348715 0.148050 0.397129
0.481533 0.137475 0.392180
0.609924 0.129552 0.391321
0.735388 0.123320 0.392649
0.856831 0.118133 0.394956
0.000000 0.305965 0.428254
0.000000 0.302615 0.424584
0.082263 0.292072 0.413817
0.219262 0.280050 0.403878
0.353821 0.268771 0.397004
0.484783 0.259639 0.394160
0.612787 0.252178 0.394101
0.738332 0.245984 0.395913
0.860150 0.240865 0.398611
0.000000 0.422409 0.424616
0.000000 0.419180 0.421092
0.089559 0.409778 0.411378
0.224804 0.399648 0.403271
0.356586 0.390826 0.399506
0.486417 0.382854 0.397924
0.614064 0.375758 0.398298
0.739593 0.369546 0.400226
0.861623 0.364425 0.403165
0.000000 0.539638 0.423989
0.000000 0.536588 0.420625
0.094292 0.528915 0.411980
0.226971 0.520878 0.405545
0.357764 0.513337 0.403134
0.486485 0.506594 0.403028
0.613676 0.499973 0.403945
0.739081 0.493886 0.406117
0.861763 0.488457 0.408940
0.000000 0.657887 0.425827
0.000000 0.655016 0.422754
0.097025 0.648784 0.415681
0.227544 0.642598 0.410491
0.357073 0.636298 0.408239
0.485346 0.630194 0.408709
0.611914 0.624347 0.410630
0.737335 0.618486 0.413120
0.860516 0.613031 0.415941
0.000000 0.777103 0.429517
0.000000 0.774593 0.426938
0.098211 0.769179 0.421418
0.227375 0.764095 0.417118
0.355764 0.758911 0.415133
0.482998 0.753726 0.415615
0.609274 0.748432 0.417713
0.734699 0.743139 0.420575
0.858145 0.737952 0.423800
0.000000 0.897189 0.435351
0.000000 0.894960 0.433018
0.097754 0.890134 0.428638
0.226008 0.885789 0.425179
0.353475 0.881406 0.423413
0.480218 0.876844 0.423687
0.606182 0.872180 0.425557
0.731509 0.867338 0.428384
0.855205 0.862630 0.431764
0.000000 0.946249 0.439285
0.000000 0.946282 0.437366
0.095605 0.945849 0.433697
0.223454 0.945408 0.430866
0.350897 0.944766 0.429285
0.477550 0.943837 0.429474
0.603189 0.942587 0.431395
0.728254 0.941085 0.434325
0.852133 0.939339 0.437779
0.000000 0.075828 0.562562
0.000000 0.072487 0.558885
0.064611 0.061746 0.546579
0.204671 0.048525 0.533590
0.341654 0.037092 0.524313
0.474073 0.028683 0.519051
0.602897 0.022485 0.517103
0.728497 0.018113 0.518175
0.848911 0.014917 0.520729
0.000000 0.185613 0.557413
0.000000 0.182160 0.553663
0.073717 0.170705 0.542177
0.212627 0.157327 0.530264
0.347927 0.145687 0.522676
0.479465 0.136407 0.519092
0.607205 0.129338 0.518685
0.732161 0.123666 0.520524
0.852964 0.118874 0.523194
0.000000 0.301141 0.552488
0.000000 0.297666 0.548681
0.083357 0.287035 0.537841
0.219888 0.275973 0.528239
0.353039 0.266443 0.523123
0.482892 0.258642 0.521395
0.610273 0.251806 0.521843
0.735456 0.246033 0.523911
0.856540 0.241315 0.526944
0.000000 0.417810 0.549461
0.000000 0.414432 0.545757
0.090201 0.405070 0.535943
0.224645 0.395997 0.528632
0.355709 0.388449 0.526061
0.484741 0.381518 0.525357
0.611879 0.374968 0.526119
0.736913 0.369278 0.528375
0.858559 0.364399 0.531247
0.000000 0.535504 0.549169
0.000000 0.532352 0.545725
0.094106 0.524829 0.537682
0.226384 0.517625 0.531922
0.356766 0.510931 0.529899
0.485518 0.504648 0.530221
0.611895 0.498702 0.531945
0.736911 0.493023 0.534280
0.859026 0.487970 0.537045
0.000000 0.653971 0.551433
0.000000 0.651250 0.548455
0.096233 0.645335 0.542180
0.226746 0.639420 0.537313
0.356542 0.633560 0.535211
0.484483 0.628001 0.536045
0.610526 0.622630 0.538646
0.735661 0.617135 0.541298
0.858187 0.611995 0.544199
0.000000 0.773324 0.555736
0.000000 0.770933 0.553234
0.097295 0.765885 0.548141
0.226392 0.761010 0.544233
0.354529 0.756384 0.542531
0.481894 0.751456 0.543052
0.608079 0.746474 0.545518
0.733166 0.741467 0.548817
0.855836 0.736629 0.552187
0.000000 0.893667 0.561946
0.000000 0.891512 0.559792
0.096608 0.887016 0.555741
0.224633 0.882901 0.552705
0.351945 0.878892 0.551159
0.478749 0.874606 0.551368
0.604538 0.870241 0.553370
0.729685 0.865659 0.556601
0.852877 0.861083 0.560278
0.000000 0.943991 0.566159
0.000000 0.944023 0.564366
0.094477 0.943673 0.561083
0.222041 0.943325 0.558609
0.349068 0.942827 0.557370
0.475584 0.942047 0.557653
0.601309 0.940940 0.559446
0.726234 0.939570 0.562539
0.849626 0.937894 0.566286
0.000000 0.071063 0.686658
0.000000 0.068095 0.682889
0.064231 0.057435 0.670883
0.203419 0.045405 0.658926
0.339016 0.035466 0.651227
0.470329 0.028120 0.647188
0.598082 0.022927 0.646104
0.723481 0.018994 0.647389
0.844029 0.015772 0.649965
0.000000 0.180830 0.682274
0.000000 0.177277 0.678351
0.073380 0.166061 0.667067
0.210956 0.154376 0.656333
0.345162 0.144119 0.650293
0.475900 0.135793 0.647488
0.603021 0.129422 0.647619
0.727993 0.124015 0.649571
0.848354 0.119545 0.652475
0.000000 0.296445 0.678368
0.000000 0.292918 0.674451
0.082136 0.282978 0.664117
0.217877 0.273159 0.655647
0.350604 0.264709 0.651254
0.480092 0.257557 0.649976
0.606864 0.251390 0.650824
0.731821 0.245963 0.653071
0.852159 0.241669 0.656286
0.000000 0.413342 0.676183
0.000000 0.409961 0.672468
0.088690 0.401272 0.663489
0.222546 0.393211 0.656929
0.353716 0.386216 0.654351
0.482317 0.380000 0.654134
0.608887 0.374125 0.655305
0.733624 0.368848 0.657534
0.854490 0.364380 0.660732
0.000000 0.531410 0.676359
0.000000 0.528293 0.673010
0.092657 0.521190 0.665859
0.224725 0.514482 0.660617
0.355183 0.508217 0.658523
0.483461 0.502466 0.659163
0.609133 0.497467 0.661169
0.734025 0.492167 0.663483
0.855394 0.487481 0.666456
0.000000 0.650185 0.678910
0.000000 0.647569 0.676156
0.094846 0.641782 0.670404
0.225371 0.636167 0.665954
0.355094 0.630619 0.664023
0.482594 0.625552 0.665016
0.608175 0.620858 0.667755
0.733108 0.615789 0.670471
0.855124 0.610935 0.673357
0.000000 0.769929 0.683517
0.000000 0.767608 0.681195
0.095559 0.762695 0.676595
0.224581 0.757946 0.673102
0.352817 0.753414 0.671534
0.479980 0.748877 0.672187
0.606019 0.744254 0.674571
0.731022 0.739569 0.677982
0.853149 0.735050 0.681347
0.000000 0.890427 0.689937
0.000000 0.888305 0.687941
0.094838 0.883988 0.684262
0.222599 0.880001 0.681668
0.349746 0.876118 0.680353
0.476402 0.872101 0.680667
0.602373 0.867920 0.682456
0.727488 0.863567 0.685804
0.849871 0.859345 0.689788
0.000000 0.941657 0.694287
0.000000 0.941688 0.692628
0.092630 0.941351 0.689730
0.220037 0.941002 0.687624
0.346797 0.940585 0.686690
0.473046 0.940018 0.687070
0.598873 0.939071 0.688656
0.723782 0.937724 0.691818
0.846524 0.936097 0.695833
0.000000 0.066298 0.811841
0.000000 0.063901 0.808031
0.062178 0.053990 0.797056
0.199769 0.043665 0.786737
0.334024 0.035139 0.780509
0.464676 0.028475 0.777383
0.592382 0.023458 0.776695
0.717664 0.019763 0.777862
0.838213 0.016737 0.780273
0.000000 0.176099 0.808299
0.000000 0.172652 0.804465
0.071001 0.162459 0.794355
0.207361 0.152126 0.784863
0.340638 0.143146 0.779949
0.470604 0.135704 0.777897
0.597703 0.129479 0.778172
0.722643 0.124410 0.779919
0.842849 0.120060 0.782804
0.000000 0.292302 0.805763
0.000000 0.288880 0.802016
0.079464 0.279747 0.792719
0.213922 0.271125 0.785460
0.346183 0.263438 0.781332
0.475751 0.256643 0.780116
0.602277 0.250954 0.781167
0.726667 0.246143 0.783664
0.846822 0.241945 0.786696
0.000000 0.409496 0.804565
0.000000 0.406256 0.801116
0.085542 0.398364 0.793494
0.218657 0.391004 0.787543
0.349850 0.384344 0.784711
0.478651 0.378294 0.784194
0.604785 0.373206 0.785515
0.729121 0.368419 0.788146
0.849468 0.364295 0.791274
0.000000 0.527781 0.805453
0.000000 0.524819 0.802355
0.089767 0.518077 0.796005
0.221747 0.511621 0.791216
0.352259 0.505663 0.788935
0.479849 0.500529 0.789588
0.605851 0.495699 0.791222
0.730114 0.491167 0.794020
0.850611 0.487049 0.797274
0.000000 0.646700 0.808001
0.000000 0.644142 0.805486
0.092471 0.638464 0.800340
0.222791 0.633069 0.796508
0.352099 0.627880 0.794859
0.479580 0.622984 0.795570
0.605104 0.618656 0.797961
0.729588 0.614211 0.800875
0.850635 0.610016 0.804084
0.000000 0.766698 0.812805
0.000000 0.764409 0.810680
0.093045 0.759565 0.806561
0.221888 0.754922 0.803511
0.350058 0.750389 0.802210
0.477128 0.746067 0.802818
0.602848 0.741808 0.805098
0.727577 0.737630 0.808477
0.849023 0.733506 0.811937
0.000000 0.887353 0.819234
0.000000 0.885286 0.817371
0.092203 0.881083 0.814192
0.219917 0.877035 0.811860
0.346974 0.873068 0.810916
0.473371 0.869297 0.811379
0.599151 0.865393 0.813204
0.724217 0.861318 0.816313
0.845949 0.857435 0.820368
0.000000 0.939199 0.823570
0.000000 0.939228 0.822096
0.090052 0.938889 0.819558
0.217348 0.938478 0.817845
0.343864 0.938079 0.817268
0.469877 0.937583 0.817801
0.595421 0.936804 0.819515
0.720509 0.935527 0.822403
0.842586 0.933998 0.826405
0.000000 0.062382 0.938652
0.000000 0.060218 0.935079
0.058568 0.051634 0.925436
0.194306 0.042850 0.916599
0.327447 0.035410 0.911573
0.457857 0.029218 0.909065
0.585615 0.024369 0.908573
0.711060 0.020595 0.909712
0.831616 0.017480 0.911907
0.000000 0.172165 0.936151
0.000000 0.168951 0.932765
0.067055 0.159780 0.923817
0.201708 0.150706 0.915900
0.334098 0.142807 0.911724
0.463898 0.135822 0.910070
0.591041 0.129855 0.910254
0.716200 0.124699 0.911913
0.836327 0.120456 0.914531
0.000000 0.288583 0.934583
0.000000 0.285380 0.931253
0.075183 0.277282 0.923453
0.208109 0.269718 0.917415
0.339953 0.262582 0.913350
0.469088 0.256182 0.912424
0.595886 0.250735 0.913300
0.720364 0.246195 0.915466
0.840280 0.242219 0.918395
0.000000 0.406253 0.934353
0.000000 0.403199 0.931333
0.081010 0.396117 0.925097
0.213241 0.389251 0.919806
0.344140 0.382912 0.916827
0.472715 0.377189 0.916229
0.598724 0.372371 0.917664
0.723002 0.368073 0.920275
0.842895 0.364338 0.923282
0.000000 0.524554 0.935822
0.000000 0.521839 0.933168
0.085647 0.515518 0.927681
0.217008 0.509313 0.923466
0.346946 0.503737 0.921364
0.474310 0.498945 0.921715
0.600270 0.494245 0.923312
0.724474 0.490219 0.926031
0.844457 0.486632 0.929251
0.000000 0.643527 0.938534
0.000000 0.641138 0.936347
0.088761 0.635672 0.931869
0.218548 0.630372 0.928689
0.347320 0.625442 0.927435
0.474639 0.620859 0.927916
0.600223 0.616573 0.930009
0.724468 0.612736 0.932852
0.844576 0.609334 0.936191
0.000000 0.763675 0.943433
0.000000 0.761470 0.941522
0.089487 0.756744 0.937884
0.218036 0.752129 0.935415
0.345719 0.747722 0.934500
0.472774 0.743446 0.934986
0.598449 0.739408 0.937111
0.722684 0.735765 0.940434
0.843207 0.732472 0.943973
0.000000 0.884576 0.949783
0.000000 0.882552 0.948115
0.088730 0.878280 0.945329
0.216322 0.874184 0.943378
0.343138 0.870270 0.942714
0.469412 0.866548 0.943282
0.594929 0.862918 0.945156
0.719497 0.859271 0.948326
0.840564 0.855962 0.952168
0.000000 0.936640 0.954105
0.000000 0.936667 0.952739
0.086739 0.936264 0.950467
0.213879 0.935838 0.949158
0.340279 0.935431 0.948830
0.466016 0.934923 0.949600
0.591248 0.934169 0.951444
0.715966 0.933083 0.954326
0.837424 0.931769 0.958166
0.000000 0.059988 1.000000
0.000000 0.057989 1.000000
0.054073 0.050428 1.000000
0.188145 0.042732 1.000000
0.320553 0.035957 1.000000
0.450688 0.030186 1.000000
0.578396 0.025554 1.000000
0.704156 0.021771 1.000000
0.824785 0.018556 1.000000
0.000000 0.169476 1.000000
0.000000 0.166357 1.000000
0.062181 0.158081 1.000000
0.195354 0.150025 1.000000
0.326975 0.142805 1.000000
0.456579 0.136130 1.000000
0.583781 0.130457 1.000000
0.709330 0.125370 1.000000
0.829669 0.121029 1.000000
0.000000 0.286189 1.000000
0.000000 0.283254 1.000000
0.069754 0.275970 1.000000
0.201692 0.268986 1.000000
0.332687 0.262328 1.000000
0.461637 0.256266 1.000000
0.588503 0.251009 1.000000
0.713410 0.246629 1.000000
0.833538 0.242695 1.000000
0.000000 0.404107 1.000000
0.000000 0.401357 1.000000
0.075722 0.394830 1.000000
0.207044 0.388321 1.000000
0.337273 0.382210 1.000000
0.465430 0.376897 1.000000
0.591659 0.372225 1.000000
0.716244 0.368214 1.000000
0.836211 0.364637 1.000000
0.000000 0.522543 1.000000
0.000000 0.519986 1.000000
0.080789 0.514074 1.000000
0.211433 0.508024 1.000000
0.340525 0.502730 1.000000
0.467687 0.498192 1.000000
0.593495 0.493857 1.000000
0.717913 0.490042 1.000000
0.837781 0.486811 1.000000
0.000000 0.641467 1.000000
0.000000 0.639128 1.000000
0.084335 0.633926 1.000000
0.213349 0.628908 1.000000
0.341502 0.624188 1.000000
0.468464 0.619886 1.000000
0.594130 0.615825 1.000000
0.718391 0.612264 1.000000
0.838242 0.609332 1.000000
0.000000 0.761705 1.000000
0.000000 0.759492 1.000000
0.085298 0.754944 1.000000
0.213252 0.750537 1.000000
0.340547 0.746347 1.000000
0.467248 0.742249 1.000000
0.592953 0.738405 1.000000
0.717013 0.735176 1.000000
0.837219 0.732294 1.000000
0.000000 0.882745 1.000000
0.000000 0.880718 1.000000
0.084690 0.876530 1.000000
0.211936 0.872597 1.000000
0.338725 0.868747 1.000000
0.464824 0.865171 1.000000
0.589853 0.861851 1.000000
0.714380 0.858444 1.000000
0.834922 0.855586 1.000000
0.000000 0.934929 1.000000
0.000000 0.934930 1.000000
0.082844 0.934511 1.000000
0.209825 0.934094 1.000000
0.336220 0.933690 1.000000
0.461940 0.933161 1.000000
0.586642 0.932449 1.000000
0.711162 0.931494 1.000000
0.832122 0.930359 1.000000
0.000000 0.060468 1.000000
0.000000 0.058562 1.000000
0.052085 0.051200 1.000000
0.185787 0.043811 1.000000
0.317957 0.037267 1.000000
0.448058 0.031605 1.000000
0.575850 0.027008 1.000000
0.701749 0.023198 1.000000
0.822199 0.019969 1.000000
0.000000 0.169235 1.000000
0.000000 0.166218 1.000000
0.060012 0.158325 1.000000
0.192924 0.150489 1.000000
0.324380 0.143457 1.000000
0.453926 0.136979 1.000000
0.581208 0.131411 1.000000
0.706834 0.126374 1.000000
0.827117 0.121934 1.000000
0.000000 0.285992 1.000000
0.000000 0.283238 1.000000
0.067567 0.276224 1.000000
0.199260 0.269395 1.000000
0.330099 0.262866 1.000000
0.458960 0.256966 1.000000
0.585842 0.251871 1.000000
0.710936 0.247518 1.000000
0.830954 0.243586 1.000000
0.000000 0.403986 1.000000
0.000000 0.401391 1.000000
0.073613 0.395037 1.000000
0.204659 0.388670 1.000000
0.334713 0.382692 1.000000
0.462836 0.377428 1.000000
0.589092 0.372907 1.000000
0.713823 0.368957 1.000000
0.833620 0.365458 1.000000
0.000000 0.522408 1.000000
0.000000 0.519980 1.000000
0.078813 0.514215 1.000000
0.209226 0.508291 1.000000
0.338155 0.503048 1.000000
0.465254 0.498590 1.000000
0.591064 0.494341 1.000000
0.715549 0.490654 1.000000
0.835288 0.487483 1.000000
0.000000 0.641341 1.000000
0.000000 0.639104 1.000000
0.082504 0.633974 1.000000
0.211290 0.629071 1.000000
0.339291 0.624436 1.000000
0.466168 0.620198 1.000000
0.591821 0.616225 1.000000
0.716170 0.612722 1.000000
0.835807 0.609885 1.000000
0.000000 0.761534 1.000000
0.000000 0.759378 1.000000
0.083605 0.754895 1.000000
0.211394 0.750572 1.000000
0.338557 0.746470 1.000000
0.465168 0.742438 1.000000
0.590853 0.738667 1.000000
0.714932 0.735516 1.000000
0.834904 0.732686 1.000000
0.000000 0.882502 1.000000
0.000000 0.880543 1.000000
0.083128 0.876420 1.000000
0.210301 0.872515 1.000000
0.337007 0.868733 1.000000
0.463032 0.865194 1.000000
0.587968 0.861955 1.000000
0.712435 0.858667 1.000000
0.832719 0.855858 1.000000
0.000000 0.934924 1.000000
0.000000 0.934924 1.000000
0.081407 0.934510 1.000000
0.208330 0.934092 1.000000
0.334744 0.933687 1.000000
0.460341 0.933160 1.000000
0.584926 0.932455 1.000000
0.709418 0.931507 1.000000
0.830070 0.930377 1.000000
